src/assets/img/githubIcon.svg

<svg width="30" height="30" viewBox="0 0 30 30" fill="none" xmlns="http://www.w3.org/2000/svg">
<path d="M15 0.370605C6.7125 0.370605 2.18932e-06 7.08311 2.18932e-06 15.3706C-0.00169914 18.5195 0.988222 21.589 2.82933 24.1436C4.67043 26.6982 7.26922 28.6082 10.257 29.6026C11.007 29.7331 11.2875 29.2831 11.2875 28.8886C11.2875 28.5331 11.268 27.3526 11.268 26.0956C7.5 26.7901 6.525 25.1776 6.225 24.3331C6.0555 23.9011 5.325 22.5706 4.6875 22.2136C4.1625 21.9331 3.4125 21.2386 4.668 21.2206C5.85 21.2011 6.693 22.3081 6.975 22.7581C8.325 25.0261 10.482 24.3886 11.343 23.9956C11.475 23.0206 11.868 22.3651 12.3 21.9901C8.9625 21.6151 5.475 20.3206 5.475 14.5831C5.475 12.9511 6.0555 11.6026 7.0125 10.5511C6.8625 10.1761 6.3375 8.63861 7.1625 6.57611C7.1625 6.57611 8.418 6.18311 11.2875 8.11511C12.5086 7.7762 13.7703 7.60562 15.0375 7.6081C16.3125 7.6081 17.5875 7.7761 18.7875 8.11361C21.6555 6.16361 22.9125 6.5776 22.9125 6.5776C23.7375 8.6401 23.2125 10.1776 23.0625 10.5526C24.018 11.6026 24.6 12.9331 24.6 14.5831C24.6 20.3401 21.0945 21.6151 17.757 21.9901C18.3 22.4581 18.7695 23.3581 18.7695 24.7651C18.7695 26.7706 18.75 28.3831 18.75 28.8901C18.75 29.2831 19.032 29.7511 19.782 29.6011C22.7595 28.5958 25.3469 26.6821 27.1799 24.1293C29.0128 21.5766 29.9991 18.5133 30 15.3706C30 7.08311 23.2875 0.370605 15 0.370605Z" fill="white"/>
</svg>

<svg width="30" height="30" fill="none" xmlns="http://www.w3.org/2000/svg"><path d="M15 .37c-8.287 0-15 6.713-15 15a14.99 14.99 0 0 0 10.257 14.233c.75.13 1.03-.32 1.03-.714 0-.356-.019-1.536-.019-2.793-3.768.694-4.743-.918-5.043-1.763-.17-.432-.9-1.762-1.537-2.12-.526-.28-1.275-.974-.02-.992 1.182-.02 2.025 1.087 2.307 1.537 1.35 2.268 3.507 1.63 4.368 1.238.132-.975.525-1.63.957-2.006-3.338-.375-6.825-1.67-6.825-7.407 0-1.632.58-2.98 1.538-4.032-.15-.375-.675-1.912.15-3.975 0 0 1.255-.393 4.124 1.54a13.92 13.92 0 0 1 3.75-.508c1.275 0 2.55.168 3.75.506 2.869-1.95 4.126-1.536 4.126-1.536.825 2.062.3 3.6.15 3.975.955 1.05 1.537 2.38 1.537 4.03 0 5.757-3.506 7.032-6.843 7.407.543.468 1.012 1.368 1.012 2.775 0 2.006-.019 3.618-.019 4.125 0 .393.282.861 1.032.711A15.024 15.024 0 0 0 30 15.371c0-8.288-6.712-15-15-15Z" fill="#fff"/></svg>
